X:315
T: Humors of Castlefinn
S: "Ceol Rince na hEireann" 1/186
Z: B.Black
L: 1/8
M: 4/4
R: reel
K: Edor
dc||BE E2 BAFB|AD D2 FAAd|BE E2 B2 AF|GBAF E2 FA|
BE E2 BAFB|AD D2 FAAd|BE E2 B2 AF|GBAF E3z||
B2 ed egfe|defg afed|B2 ed efgb|agfa ge e2|
B2 ed egfe|defg afdf|efga bagf|e2 fd edBA||
